X: 58
T: Running Scout's Ghost Dance Song
N: Derived from pawnee58.krn
O: Oklahoma, U.S.A.
N: from Pawnee Music by Frances Densmore, 1926
Z: transcribed to **kern format by David Huron, August 2000
C: Skidi and Chaui Bands, 1919
L: 1/8
M: 2/4
Q: 1/4=88
K: F clef=treble
%%linebreak <none>
G G [I:setbarnb 1]| 
A2A G[M:3/4] | 
G2G2G G[M:2/4] | 
A2A G[M:3/4] | 
G2G2G A[M:2/4] | 
(F> D) F D[M:3/4] | 
D2D2G G[M:2/4] | 
(F> D) F D[M:3/4] | 
D2D2D D[M:2/4] | 
D2E D[M:3/4] | 
D2D2D D[M:2/4] | 
D2E D[M:3/4] | 
D2D2 :|]  



